src/images/feedback.svg

<svg width="20" height="20" viewBox="0 0 20 20" fill="none" xmlns="http://www.w3.org/2000/svg">
<path d="M18.0762 8.22176C17.9207 8.15708 17.7409 8.19286 17.6221 8.31211L15.0496 10.8837C14.8747 11.0591 14.6533 11.1771 14.4116 11.2255L12.3283 11.6422C11.9133 11.726 11.4934 11.5942 11.1996 11.3008C10.9034 11.0041 10.7756 10.5818 10.8578 10.1716L11.2253 8.33325H4.58332C4.35301 8.33325 4.16664 8.14688 4.16664 7.91657C4.16664 7.68625 4.35301 7.49989 4.58332 7.49989H11.5779C11.5924 7.48383 11.6008 7.46364 11.6162 7.44821L13.2314 5.83321H4.58332C4.35301 5.83321 4.16664 5.64684 4.16664 5.41653C4.16664 5.18622 4.35301 4.99985 4.58332 4.99985H13.75C13.8387 4.99985 13.9164 5.03368 13.9839 5.08086L16.6878 2.37735C16.9157 2.14907 17.1916 1.96961 17.5081 1.84348C17.6522 1.7861 17.7523 1.65305 17.7677 1.49883C17.784 1.34422 17.7124 1.19407 17.583 1.1086C17.3088 0.928325 16.9922 0.83313 16.6667 0.83313H1.66668C0.747891 0.833247 0 1.58075 0 2.49993V18.7499C0 18.9184 0.101719 19.0706 0.257148 19.1348C0.308437 19.1564 0.36293 19.1666 0.416641 19.1666C0.524883 19.1666 0.631484 19.1243 0.71125 19.0445L4.75586 14.9999H16.6667C17.5855 14.9999 18.3334 14.2525 18.3334 13.3332V8.60668C18.3333 8.43825 18.2316 8.28606 18.0762 8.22176ZM9.58332 10.8332H4.58332C4.35301 10.8332 4.16664 10.6469 4.16664 10.4166C4.16664 10.1863 4.35301 9.99989 4.58332 9.99989H9.58332C9.81363 9.99989 10 10.1863 10 10.4166C10 10.6469 9.81363 10.8332 9.58332 10.8332Z" fill="white"/>
<path d="M18.405 2.5C17.9843 2.5 17.5733 2.67051 17.2771 2.96711L12.2054 8.03793C12.1468 8.09613 12.1078 8.17016 12.0915 8.25074L11.6748 10.3349C11.6471 10.4716 11.6903 10.6128 11.7887 10.7113C11.8677 10.7902 11.9743 10.8333 12.0833 10.8333C12.1102 10.8333 12.1379 10.8305 12.1647 10.8252L14.2473 10.4085C14.3286 10.3922 14.4027 10.3528 14.4605 10.2946L19.5329 5.22297C19.5329 5.22297 19.5329 5.22297 19.5329 5.22258C19.8299 4.92555 20 4.51457 20 4.09504C20 3.21535 19.2847 2.5 18.405 2.5ZM17.7441 5.83328L16.6665 4.75566L17.2557 4.16648L18.3334 5.24418L17.7441 5.83328Z" fill="white"/>
</svg>

<svg width="20" height="20" fill="none" xmlns="http://www.w3.org/2000/svg"><path d="M18.076 8.222a.416.416 0 00-.454.09l-2.572 2.572a1.244 1.244 0 01-.638.341l-2.084.417a1.249 1.249 0 01-1.47-1.47l.367-1.839H4.583a.416.416 0 110-.833h6.995c.014-.016.023-.036.038-.052l1.615-1.615H4.583a.416.416 0 110-.833h9.167c.089 0 .166.034.234.08l2.704-2.703c.228-.228.504-.407.82-.534a.416.416 0 00.075-.734 1.663 1.663 0 00-.916-.276h-15C.747.833 0 1.581 0 2.5v16.25a.417.417 0 00.711.294L4.756 15h11.91c.92 0 1.667-.748 1.667-1.667V8.607a.417.417 0 00-.257-.385zm-8.493 2.611h-5a.416.416 0 110-.833h5a.416.416 0 110 .833z" fill="#fff"/><path d="M18.405 2.5c-.42 0-.832.17-1.128.467l-5.072 5.07a.415.415 0 00-.114.214l-.416 2.084a.416.416 0 00.49.49l2.082-.416a.414.414 0 00.213-.114l5.073-5.072A1.597 1.597 0 0018.405 2.5zm-.66 3.333l-1.079-1.077.59-.59 1.077 1.078-.589.59z" fill="#fff"/></svg>
